!!!COM: Bach, Johann Sebastian
!!!OPR: Joh. Seb. Bachs vierstimmige Choralgesänge
!!!XEN: Four-part Chorales
!!!OTL: 164. Von Gott will ich nicht lassen
!!!SCT: BWV 417
!!!SCA: Thematisch-systematisches Verzeichnis der musikalischen Werke Johann Sebastian Bach: Bach-Werke-Verzeichnis (Schmieder)
!!!YOR: Bach Gesellschaft Edition xxxix
!!!ENC: Steven Rasmussen
!!!CDT: 1685/3//-1750/7/28/
!!!OCY: Deutschland
!!!YEC: Copyright (c) 1994, 2000 Center for Computer Assisted Research in the Humanities
!!!YEM: Rights to all derivative editions reserved
!!!YEN: United States of America
**kern	**silbe	**kern	**kern	**silbe	**kern	**silbe
*I:[SOPRANO]	*I:[SOPRANO]	*I:[ALTO]	*I:[TENORE]	*I:[TENORE]	*I:[BASSO]	*I:[BASSO]
*>[A,A,B]	*	*>[A,A,B]	*>[A,A,B]	*	*>[A,A,B]	*
*>A	*	*>A	*>A	*	*>A	*
*clefG2	*	*clefG2	*clefGv2	*	*clefF4	*
*k[f#c#]	*	*k[f#c#]	*k[f#c#]	*	*k[f#c#]	*
*b:	*	*b:	*b:	*	*b:	*
*M4/4	*	*M4/4	*M4/4	*	*M4/4	*
4f#	VonfÃ¼hrt	4c#	4A#	.	8F#L	.
.	.	.	.	.	8EJ	.
=1	=1	=1	=1	=1	=1	=1
4b	Gottmich	4f#	4.B	.	4D	.
4cc#	willauf	4e	.	.	4C#	.
.	.	.	8A#	.	.	.
4dd	ichrech-	8dL	4.B	.	8BBL	.
.	.	8f#J	.	.	8AAJ	.
4ee	nicht-ter	8bL	.	.	8GG#L	.
.	.	8g#J	8B	.	8EJ	.
=2	=2	=2	=2	=2	=2	=2
4.cc#	las-Stra-	8g#L	8BL	.	8AAL	.
.	.	8f#	8A	.	8BBJ	.
.	.	16e#L	8G#	.	4C#	.
.	.	16d#J	.	.	.	.
8b	.	8e#J	8c#J	.	.	.
4a;	-sen,-ssen,	4f#;	4c#;	.	4FF#;	.
4a	dennda	4f#	4c#	.	8F#L	.
.	.	.	.	.	8EJ	.
=3	=3	=3	=3	=3	=3	=3
4b	erich	4f#	8B	erich	8DL	erich
.	.	.	8A	lÃ¤sstsonst	8F#J	.
4b	lÃ¤sstsonst	8eL	2G	nichtir-	4G	lÃ¤sstsonst
.	.	8dJ	.	.	.	.
8cc#L	nichtir-	4e	.	.	4AA#	nichtir-
8bJ	.	.	.	.	.	.
4cc#	von-ret	8eL	4F#	von-ret	4AA#	von-ret
.	.	16f#L	.	.	.	.
.	.	16eJJ	.	.	.	.
=4	=4	=4	=4	=4	=4	=4
2.f#;	mir,sehr.	2.d;	2.F#;	.	2.BB;	.
=:|!	=:|!	=:|!	=:|!	=:|!	=:|!	=:|!
*>B	*	*>B	*>B	*	*>B	*
4ff#	Er	4b	4d	.	8BBL	.
.	.	.	.	.	8AAJ	.
=5	=5	=5	=5	=5	=5	=5
4ee	reicht	4b	8eL	.	8GGL	.
.	.	.	8f#J	.	8GJ	.
4dd	mir	4b	4g	.	8F#L	.
.	.	.	.	.	8EJ	.
4dd	sei-	4a	8f#L	.	4A	.
.	.	.	16eL	.	.	.
.	.	.	16dJJ	.	.	.
4cc#	-ne	4a	8eL	.	4AA	.
.	.	.	16f#L	.	.	.
.	.	.	16gJJ	.	.	.
=6	=6	=6	=6	=6	=6	=6
2.dd;	Hand,	2.a;	2.f#;	.	2.D;	.
4cc#	den	4a	4e	.	8AL	.
.	.	.	.	.	8GJ	.
=7	=7	=7	=7	=7	=7	=7
4dd	A-	4a	4f#	.	8F#L	.
.	.	.	.	.	8EJ	.
4ee	-bend	4a	4e	.	8DL	.
.	.	.	.	.	8C#J	.
4ff#	wie	4.a	8dL	.	8DL	.
.	.	.	8AJ	.	16EL	.
.	.	.	.	.	16F#JJ	.
4ff#	den	.	4d	.	4BB	.
.	.	8g#	.	.	.	.
=8	=8	=8	=8	=8	=8	=8
4.ee	Mor-	8aL	4c#	.	8C#L	.
.	.	8f#J	.	.	8DJ	.
.	.	4g#	16BLL	.	4E	.
.	.	.	16AJ	.	.	.
8dd	.	.	8BJ	.	.	.
4cc#;	-gen	4e;	4A;	.	4AA;	.
8cc#L	tut	4f#	4c#	.	4AA#	.
16ddL	.	.	.	.	.	.
16eeJJ	.	.	.	.	.	.
=9	=9	=9	=9	=9	=9	=9
4dd	er	4f#	8c#L	.	(8BB	.
.	.	.	8BJ	.	4B)	.
8.cc#L	mich	4f#	8c#L	.	.	.
.	.	.	8d#J	.	8A	.
16bJk	.	.	.	.	.	.
4b	wohl	8gL	8eL	.	8GL	.
.	.	8f#J	8d#J	.	16AL	.
.	.	.	.	.	16BJJ	.
8bL	ver-	4g	8eL	.	4E	.
16cc#L	.	.	8BJ	.	.	.
16ddJJ	.	.	.	.	.	.
=10	=10	=10	=10	=10	=10	=10
4.cc#	-sor-	8g#L	8G#L	.	8E#L	.
.	.	8f#J	16AL	.	16F#L	.
.	.	.	16BJJ	.	16G#JJ	.
.	.	4e#	4c#	.	4C#	.
8b	.	.	.	.	.	.
4a;	-gen,	4f#;	4c#;	.	4F#;	.
4g	sei	8f#L	8dL	.	8BBL	.
.	.	8enJ	8AJ	.	8C#J	.
=11	=11	=11	=11	=11	=11	=11
4f#	wo	8dL	4A	.	8DL	.
.	.	8eJ	.	.	8C#J	.
4b	ich	8f#L	8dL	.	8DL	.
.	.	8gJ	8c#J	.	8EJ	.
8bL	woll'	8f#L	8dL	.	8F#L	.
8cc#J	.	16gL	16eL	.	8EJ	.
.	.	16f#JJ	16dJ	.	.	.
4a#	im	8eL	8c#J	.	4F#	.
.	.	16f#L	8F#	.	.	.
.	.	16eJJ	.	.	.	.
=12	=12	=12	=12	=12	=12	=12
2.b;	Land.	2.d#;	2.F#;	.	2.BB;	.
==|!	==|!	==|!	==|!	==|!	==|!	==|!
*-	*-	*-	*-	*-	*-	*-
!!!RWG: Key is interpreted using the Humdrum key tool.
!!!END: 1994/08/03
!!!EMD: Converted from MuseData to Humdrum Dec 19, 2000, by Andreas Kornstaedt using muse2kern.
!!!EED: Craig Stuart Sapp
!!!EEV: 2024/03/31
!!!ONB: Some non-unicode characters
